X: 95
T:Preston's
M:4/4
L:1/8
S:Gerry O'Donnell, Belfast (flute)
R:Reel
D:Session tape - Milltown Malbay 1985
Z:Bernie Stocks
K:G
GBBA G3G | FAAG FAD2 | GBBA GBdg |1 fgaf gedB :|2 fgaf g4 |:\
gbba fgab | agef gede |1 gbba fgab | agef g4 :|2 gbfa efga | gfef gedB ||\
<end>
<start>
